#ifndef USERPREFS_HAS_SPLASH
#define icon_width 32
#define icon_height 32
static uint8_t icon_bits[] = {
  0x00, 0xE0, 0x03, 0x00, 0x00, 0xFE, 0x3F, 0x00, 0x80, 0xFF, 0xFF, 0x00,
  0x00, 0x00, 0xFE, 0x01, 0x00, 0x00, 0xFC, 0x03, 0x00, 0x7F, 0xF0, 0x07,
  0x00, 0xFF, 0xE0, 0x0F, 0x00, 0xFE, 0xC0, 0x1F, 0x00, 0xFC, 0xC0, 0x1F,
  0x08, 0xFC, 0x88, 0x3F, 0x08, 0xF8, 0x98, 0x3F, 0x0C, 0xF0, 0x18, 0x7F,
  0x0C, 0xF0, 0x18, 0x7F, 0x0C, 0xE1, 0x38, 0x7F, 0x0C, 0xE1, 0x38, 0x7F,
  0x0C, 0xC3, 0x38, 0x7F, 0x0C, 0x87, 0x38, 0x7F, 0x0C, 0x07, 0x18, 0x7F,
  0x0C, 0x0F, 0x18, 0x7F, 0x08, 0x0F, 0x98, 0x7F, 0x00, 0x1F, 0x88, 0x7F,
  0x00, 0x3F, 0xC0, 0x3F, 0x02, 0x3F, 0xE0, 0x3F, 0x04, 0x7F, 0xE0, 0x1F,
  0x0C, 0x3E, 0xF0, 0x1F, 0x38, 0x00, 0xFC, 0x0F, 0xF0, 0x00, 0xFF, 0x07,
  0xE0, 0xFF, 0xFF, 0x03, 0xC0, 0xFF, 0xFF, 0x01, 0x80, 0xFF, 0xFF, 0x00,
  0x00, 0xFE, 0x3F, 0x00, 0x00, 0xF0, 0x07, 0x00,
};
#endif
